X: 1342
T: Don't Bother Me
R:Reel
B:O'Neill's 1342
Z:Transcribed by Trish O'Neil
M:C|
L:1/8
K:D
DFAcd2(3ABc|defd ecAc|d2(Ac) BAGF|EFGE FDD2:|
d2(fd) (3fga (fd)|g2(bg) ecAc|d2(fd) (3fga (fd)|efge (fd)d2|
d2(fd) (3fga (fd)|g2(bg) ecAc|d2(Ac) BAGF|EFGE (FD)D2|]


